assets/svg/icons/lock.svg

<svg width="48" height="48" viewBox="0 0 48 48" fill="none" xmlns="http://www.w3.org/2000/svg">
    <path fill-rule="evenodd" clip-rule="evenodd" d="M37.7051 23.4314V13.4893C37.7051 6.03897 31.4142 0 23.6537 0C15.8932 0 9.60236 6.03897 9.60236 13.4893V23.4314C5.16837 30.1241 6.51522 38.9265 12.7676 44.1109C19.0199 49.2964 28.2876 49.2964 34.5399 44.1109C40.7933 38.9265 42.1401 30.1241 37.7051 23.4314ZM23.6537 35.9715C21.3545 35.9715 19.4904 34.1813 19.4904 31.9747C19.4904 29.7681 21.3545 27.9778 23.6537 27.9778C25.954 27.9778 27.8171 29.7681 27.8171 31.9747C27.8171 34.1813 25.954 35.9715 23.6537 35.9715ZM32.0086 17.5975C32.1574 17.511 32.2811 17.3871 32.3674 17.2382C32.4538 17.0892 32.4998 16.9203 32.5009 16.7482V13.4893C32.5009 8.79824 28.5405 4.99604 23.6537 4.99604C18.768 4.99604 14.8066 8.79824 14.8066 13.4893V16.7482C14.8066 17.0938 14.9939 17.4154 15.2989 17.5975C15.6049 17.7797 15.9869 17.7974 16.3095 17.6444C18.6042 16.5536 21.113 15.9877 23.6537 15.9877C26.1944 15.9877 28.7032 16.5536 30.9979 17.6444C31.3206 17.7974 31.7026 17.7797 32.0086 17.5975Z" fill="url(#paint0_radial_1718_46473)"/>
    <defs>
    <radialGradient id="paint0_radial_1718_46473" cx="0" cy="0" r="1" gradientUnits="userSpaceOnUse" gradientTransform="translate(10.0426 6.05514) rotate(53.1351) scale(50.1201 40.8034)">
    <stop stop-color="#1F2348" stop-opacity="0.1"/>
    <stop offset="1" stop-color="#1F2348" stop-opacity="0.4"/>
    </radialGradient>
    </defs>
    </svg>

<svg xmlns="http://www.w3.org/2000/svg" width="48" height="48" fill="none" viewBox="0 0 48 48">
  <path fill="url(#a)" fill-rule="evenodd" d="M37.705 23.431V13.49C37.705 6.04 31.415 0 23.654 0 15.894 0 9.602 6.039 9.602 13.49v9.941c-4.434 6.693-3.087 15.495 3.166 20.68 6.252 5.185 15.52 5.185 21.772 0 6.253-5.184 7.6-13.987 3.165-20.68Zm-14.051 12.54c-2.3 0-4.164-1.79-4.164-3.996 0-2.207 1.865-3.997 4.164-3.997 2.3 0 4.163 1.79 4.163 3.997 0 2.206-1.863 3.996-4.163 3.996Zm8.355-18.373a.99.99 0 0 0 .492-.85V13.49c0-4.69-3.96-8.493-8.847-8.493-4.886 0-8.847 3.802-8.847 8.493v3.26c0 .345.187.666.492.849.306.182.688.2 1.01.046a17.107 17.107 0 0 1 14.689 0 1.08 1.08 0 0 0 1.01-.046Z" clip-rule="evenodd"/>
  <defs>
    <radialGradient id="a" cx="0" cy="0" r="1" gradientTransform="matrix(30.06863 40.09865 -32.64481 24.47925 10.043 6.055)" gradientUnits="userSpaceOnUse">
      <stop stop-color="#1F2348" stop-opacity=".1"/>
      <stop offset="1" stop-color="#1F2348" stop-opacity=".4"/>
    </radialGradient>
  </defs>
</svg>
